X: 5281
T: Broomstick, The
R: reel
M: 4/4
K: Adorian
|:A2 BA A2 Bd|edBd efg2|G2 AF G2AB|cABG AE (3EDE|
A2 BA A2 Bd|edBd efg2|gfge d2ef|1 gedB BAGB:|2 gedB BA A2|
|:a2 bg a2 (3efg|a2 bg agef|gagf gfef|gbaf gede|
ea a2 a2bg|a2 bg agef|gfge d2ef|1 gedB BA A2:|2 gedB BAGB|

